X:19
T:Fl\oy en liten bl\aafugl
O:norway
C:anon.
R:Reinlender, Nursery song
Z:Transcribed by Frank Nordberg - http://www.musicaviva.com
M:2/4
L:1/16
K:G
"G"ddde d2B2|"G"G2.B2.B2.B2|
w:Fl\oy en li-ten bl\aa-fugl gjen-nom vin-du,
"D7"A2.c2.c2.c2|"G"B2.d2.d2.d2|"G"ddde d2B2|
w:gjen-nom vin-du, gjen-nom vin-du. Fl\oy en li-ten bl\aa-fugl
"G"G2.B2.B2.BB|"D7"d4d4|"G"G4 z4|]
